X: 21562
T: Kilfenora, The
R: jig
M: 6/8
K: Dmajor
A2D FED|A2D FED|A2D FED|dce dcB|
A2D FED|A2D FED|~E3 =cAF|1 ~G3 GAB:|2 ~G3 GFE||
F2 A dAF|ABA BAG|F2 A dAF|ABA ABG|
F2 A dAF|ABA AFD|~E3 =cAF|1 ~G3 GFE:|2 G3 Geg||
f2 d dcd|f2 d dcd|f2 d dcd|~a3 bag|
fed dcd|fed def|ged cde|~g3 a2g:|
fed faf|gbg faf|fed dcd|~a3 bag|
fed faf|gbg faf|ged cde|g3 a2g:|
fed edc|dcB AFA|DFA dAF|A/A/AA AB=c|
~B3 ~=c3|~B3 AFD|~E3 =cAF|1 ~G3 Geg:|2 GFG GAB:|

